germany/municipalities/07131055.svg

<?xml version="1.0" encoding="UTF-8" standalone="no"?>
<!-- Created with Inkscape (http://www.inkscape.org/) -->

<svg
   xmlns:dc="http://purl.org/dc/elements/1.1/"
   xmlns:cc="http://creativecommons.org/ns#"
   xmlns:rdf="http://www.w3.org/1999/02/22-rdf-syntax-ns#"
   xmlns:svg="http://www.w3.org/2000/svg"
   xmlns="http://www.w3.org/2000/svg"
   xmlns:sodipodi="http://sodipodi.sourceforge.net/DTD/sodipodi-0.dtd"
   xmlns:inkscape="http://www.inkscape.org/namespaces/inkscape"
   width="197.93207mm"
   height="209.34358mm"
   viewBox="0 0 701.3341 741.76859"
   id="svg9616"
   version="1.1"
   inkscape:version="0.91 r13725"
   sodipodi:docname="DEU Niederzissen COA.svg">
  <defs
     id="defs9618">
    <inkscape:path-effect
       effect="spiro"
       id="path-effect10517"
       is_visible="true" />
    <inkscape:path-effect
       effect="spiro"
       id="path-effect10513"
       is_visible="true" />
  </defs>
  <sodipodi:namedview
     id="base"
     pagecolor="#ffffff"
     bordercolor="#666666"
     borderopacity="1.0"
     inkscape:pageopacity="0.0"
     inkscape:pageshadow="2"
     inkscape:zoom="0.72798892"
     inkscape:cx="350.66704"
     inkscape:cy="370.88383"
     inkscape:document-units="px"
     inkscape:current-layer="layer1"
     showgrid="false"
     inkscape:window-width="1366"
     inkscape:window-height="745"
     inkscape:window-x="-8"
     inkscape:window-y="-8"
     inkscape:window-maximized="1"
     fit-margin-top="0"
     fit-margin-left="0"
     fit-margin-right="0"
     fit-margin-bottom="0"
     inkscape:snap-midpoints="true"
     inkscape:snap-smooth-nodes="true"
     inkscape:object-nodes="true"
     inkscape:snap-nodes="false" />
  <metadata
     id="metadata9621">
    <rdf:RDF>
      <cc:Work
         rdf:about="">
        <dc:format>image/svg+xml</dc:format>
        <dc:type
           rdf:resource="http://purl.org/dc/dcmitype/StillImage" />
        <dc:title></dc:title>
      </cc:Work>
    </rdf:RDF>
  </metadata>
  <g
     inkscape:label="Ebene 1"
     inkscape:groupmode="layer"
     id="layer1"
     transform="translate(-13.160785,-32.85368)">
    <path
       style="fill:#ffffff;fill-rule:evenodd;stroke:none;stroke-width:11;stroke-opacity:1"
       inkscape:connector-curvature="0"
       d="m 18.840505,38.353681 13.398,416.624409 c 7.415,175.24977 153.919795,314.04607 331.589255,314.14417 177.50971,-0.2149 324.06939,-139.0612 331.58941,-314.14417 l 13.39798,-416.624409 -344.9794,0 z"
       id="path10563-0-2" />
    <path
       style="fill:#ff0000;fill-rule:evenodd;stroke:#000000;stroke-width:8;stroke-linecap:butt;stroke-linejoin:round;stroke-miterlimit:4;stroke-dasharray:none;stroke-opacity:1;fill-opacity:1"
       d="M 5.6796875 5.5 L 214.91211 216.20312 L 461.20117 216.20312 L 72.769531 5.5 L 5.6796875 5.5 z M 461.20117 216.20312 L 461.20117 5.5 L 350.67578 5.5 L 339.64453 5.5 L 461.20117 216.20312 z M 461.20117 216.20312 L 693.27148 79.599609 L 695.6543 5.5 L 585.70703 5.5 L 461.20117 216.20312 z M 461.20117 216.20312 L 684.97461 337.58789 L 688.87891 216.20312 L 461.20117 216.20312 z M 461.20117 216.20312 L 461.20117 460.2832 L 488.56641 491.7793 L 609.3125 613.375 C 606.883 616.35761 604.39636 619.29192 601.86523 622.1875 L 601.88281 622.20703 C 621.79692 599.42671 638.59784 573.90798 651.63281 546.29297 L 461.20117 216.20312 z M 461.20117 216.20312 L 305.76758 307.69727 L 369.32031 371.69727 L 461.20117 216.20312 z "
       transform="translate(13.160785,32.85368)"
       id="path10357" />
    <path
       style="fill:#0099ff;fill-rule:evenodd;stroke:#000000;stroke-width:11;stroke-linecap:butt;stroke-linejoin:round;stroke-miterlimit:4;stroke-dasharray:none;stroke-opacity:1;fill-opacity:1"
       d="M 5.6796875 5.5 L 19.078125 422.125 C 26.493125 597.37477 172.99657 736.17143 350.66602 736.26953 C 454.82081 736.14344 548.30389 688.27298 609.3125 613.375 L 5.6796875 5.5 z "
       transform="translate(13.160785,32.85368)"
       id="path10311" />
    <path
       style="fill:#ffffff;fill-rule:evenodd;stroke:#000000;stroke-width:5;stroke-linecap:round;stroke-linejoin:round;stroke-miterlimit:4;stroke-dasharray:none;stroke-opacity:1"
       d="M 376.62891 471.66602 C 373.6428 484.20486 366.70337 495.77121 357.04492 504.30664 C 342.97273 516.74262 324.12988 522.26598 305.63477 525.52344 C 285.46137 529.07649 264.90349 530.36093 244.43359 529.60352 C 215.78669 528.54356 187.18722 523.44645 160.38281 513.2832 C 147.05527 508.22988 134.19909 501.93682 122.03125 494.51367 L 52.845703 553.00781 C 107.13433 661.7155 220.53632 736.19573 350.66602 736.26758 C 432.22546 736.16884 507.23856 706.78898 565.24609 658.08984 L 376.62891 471.66602 z "
       transform="translate(13.160785,32.85368)"
       id="path10511" />
    <path
       style="fill:none;fill-rule:evenodd;stroke:#000000;stroke-width:15;stroke-linecap:butt;stroke-linejoin:miter;stroke-miterlimit:4;stroke-dasharray:none;stroke-opacity:1"
       d="m 134.32606,525.05995 c 12.20175,8.50641 25.39131,15.59465 39.21848,21.07653 26.65556,10.56779 55.40337,15.07132 84.05013,16.32042 20.48069,0.89303 41.14174,0.14604 61.20155,-4.08011 18.25895,-3.84675 36.03538,-10.64159 51.40931,-21.21653 5.52003,-3.79695 10.78675,-8.1452 14.58341,-13.66543 3.79666,-5.52023 6.01939,-12.35342 5.00108,-18.9754 -0.83703,-5.44316 -3.80366,-10.40834 -7.67789,-14.32229 -3.87423,-3.91394 -8.62514,-6.85513 -13.53865,-9.34231 -11.67046,-5.90751 -24.50924,-9.43482 -37.53695,-10.60827 -19.52754,-1.75892 -39.25431,1.73886 -57.87805,7.86871 -7.33787,2.4152 -14.54149,5.23823 -21.56653,8.45171"
       id="path10515"
       inkscape:path-effect="#path-effect10517"
       inkscape:original-d="m 134.32606,525.05995 c 0,0 25.23923,16.09285 39.21848,21.07653 26.88273,9.58383 55.56606,14.5347 84.05013,16.32042 20.40574,1.27927 41.28945,0.5609 61.20155,-4.08011 18.05451,-4.20805 37.36125,-9.12004 51.40931,-21.21653 9.61508,-8.27935 20.79116,-20.00986 19.58449,-32.64083 -1.00752,-10.5463 -12.2273,-18.05809 -21.21654,-23.6646 -11.03248,-6.88087 -24.56655,-9.69689 -37.53695,-10.60827 -19.42228,-1.36473 -39.03411,2.97044 -57.87805,7.86871 -7.47283,1.94247 -21.56653,8.45171 -21.56653,8.45171"
       inkscape:connector-curvature="0"
       sodipodi:nodetypes="caaaaaaaac" />
    <path
       style="fill:none;fill-rule:evenodd;stroke:#000000;stroke-width:11;stroke-opacity:1"
       inkscape:connector-curvature="0"
       d="m 18.8405,38.35368 13.398,416.62441 c 7.415,175.24977 153.9198,314.04607 331.58926,314.14417 177.5097,-0.2149 324.0694,-139.0612 331.5894,-314.14417 l 13.398,-416.62441 -344.9794,0 z"
       id="path10563-0" />
  </g>
</svg>

<svg xmlns="http://www.w3.org/2000/svg" width="748.09" height="791.22" viewBox="0 0 701.334 741.769"><path style="fill:#fff;fill-rule:evenodd;stroke:none;stroke-width:11;stroke-opacity:1" d="M18.84 38.354 32.24 454.978c7.415 175.25 153.92 314.046 331.589 314.144 177.51-.215 324.07-139.06 331.59-314.144l13.397-416.624h-344.98z" transform="translate(-13.16 -32.854)"/><path style="fill:red;fill-rule:evenodd;stroke:#000;stroke-width:8;stroke-linecap:butt;stroke-linejoin:round;stroke-miterlimit:4;stroke-dasharray:none;stroke-opacity:1;fill-opacity:1" d="m5.68 5.5 209.232 210.703h246.29L72.77 5.5H5.68zM461.2 216.203V5.5H339.645L461.2 216.203zm0 0L693.271 79.6l2.383-74.1H585.707L461.201 216.203zm0 0 223.774 121.385 3.904-121.385H461.2zm0 0v244.08l27.365 31.496 120.747 121.596a331.672 331.672 0 0 1-7.448 8.813l.018.019c19.914-22.78 36.715-48.299 49.75-75.914L461.2 216.203zm0 0-155.433 91.494 63.552 64 91.881-155.494z"/><path style="fill:#09f;fill-rule:evenodd;stroke:#000;stroke-width:11;stroke-linecap:butt;stroke-linejoin:round;stroke-miterlimit:4;stroke-dasharray:none;stroke-opacity:1;fill-opacity:1" d="m5.68 5.5 13.398 416.625c7.415 175.25 153.919 314.046 331.588 314.145 104.155-.127 197.638-47.997 258.647-122.895L5.68 5.5z"/><path style="fill:#fff;fill-rule:evenodd;stroke:#000;stroke-width:5;stroke-linecap:round;stroke-linejoin:round;stroke-miterlimit:4;stroke-dasharray:none;stroke-opacity:1" d="M376.629 471.666c-2.986 12.539-9.926 24.105-19.584 32.64-14.072 12.437-32.915 17.96-51.41 21.217-20.174 3.553-40.732 4.838-61.201 4.08-28.647-1.06-57.247-6.157-84.051-16.32a230.831 230.831 0 0 1-38.352-18.77l-69.185 58.495c54.288 108.707 167.69 183.188 297.82 183.26 81.56-.1 156.573-29.479 214.58-78.178L376.63 471.666z"/><path style="fill:none;fill-rule:evenodd;stroke:#000;stroke-width:15;stroke-linecap:butt;stroke-linejoin:miter;stroke-miterlimit:4;stroke-dasharray:none;stroke-opacity:1" d="M134.326 525.06a193.085 193.085 0 0 0 39.219 21.076c26.655 10.568 55.403 15.072 84.05 16.32 20.48.894 41.141.147 61.201-4.08 18.26-3.846 36.036-10.64 51.41-21.216 5.52-3.797 10.786-8.145 14.583-13.665 3.797-5.52 6.02-12.354 5.001-18.976-.837-5.443-3.804-10.408-7.678-14.322-3.874-3.914-8.625-6.855-13.539-9.342-11.67-5.908-24.509-9.435-37.536-10.608-19.528-1.76-39.255 1.738-57.879 7.868a208.758 208.758 0 0 0-21.566 8.452" transform="translate(-13.16 -32.854)"/><path style="fill:none;fill-rule:evenodd;stroke:#000;stroke-width:11;stroke-opacity:1" d="m18.84 38.354 13.398 416.624c7.416 175.25 153.92 314.046 331.59 314.144 177.51-.215 324.07-139.06 331.59-314.144l13.397-416.624h-344.98z" transform="translate(-13.16 -32.854)"/></svg>
